imgs/GermanyFlag.svg

<svg width="25" height="18" viewBox="0 0 25 18" fill="none" xmlns="http://www.w3.org/2000/svg">
<path d="M0.00683594 12H24.0068V18H0.00683594V12Z" fill="#FFCE00"/>
<path d="M0.00683594 0H24.0068V6H0.00683594V0Z" fill="black"/>
<path d="M0.00683594 6H24.0068V12H0.00683594V6Z" fill="#DD0000"/>
</svg>

<svg width="25" height="18" fill="none" xmlns="http://www.w3.org/2000/svg"><path d="M.007 12h24v6h-24v-6z" fill="#FFCE00"/><path d="M.007 0h24v6h-24V0z" fill="#000"/><path d="M.007 6h24v6h-24V6z" fill="#D00"/></svg>
